X: 26267
T: Meillionen
R: barndance
M: 4/4
K: Dmajor
|:(3ABc|d2 f2 gfed|cdef g2 fe|d2 f2 e2 d2|cB (3Bcd e2 dc|
d3 f g>fed|cdef g2 ag|f2 gf e3 d|d4 d2:|
|:(3efg|a3 d c3 d|e6 fg|a3 g gfed|c>def gedc|
d2 de f2 fg|agfe f2 ed|g2 a2 b2 a2|g>agf e2 (3efg|
f2 f2 gfed|cdef g4|f2 gf e2 dc|d6:|

